X: 24201
T: Lord Lovat's Welcome To Castle Downie
R: waltz
M: 3/4
K: Amixolydian
M:3/2
[L: 1/4]
cA AG A2|cA Ac ed|cA AG A2|BG GB/c/ dB|
cA AG A2|cA Ac fd|cA AG A2|BG GB/c/ dB||
ce ef/g/ a2|ce ef/g/ ae|ce ef/g/ a2|BG GB/c/ dB|
ce ef/g/ a2|ce ef/g/ ae|f/g/a fd c2|BG GB/c/ dB||

